X:279
T:Life Let Us Cherish. JaW.279
M:6/8
L:1/8
Q:3/8=80
S:James Winder Ms, Lancashire, 1835-41
R:.Air
O:England
A:Wyresdale,Lancashire
Z:vmp.Chris Partington, Aug 2004
K:G
B3 cBc|d2g ” cr”g3|G3 AGA|BcB A3|!
B3 cBc|d2g (gec)|B3 AGA|G3-G2:|!
d|~d2c ABc|d2B G2d|d2c ABc|d2BG2d|!
e2c g2e|d2B g2d|ded dcB|HB3 {AcB}HA3|!
B3 cBc|d2g g3|G3 AGA|BcB A3|!
B3 cBc|d2g gec|B3 AGA|G3-G2|]

